fs/table_stack_below_16_regular.svg

<svg viewBox="0 0 16 16" fill="none" xmlns="http://www.w3.org/2000/svg" height="1em" width="1em">
  <path d="M13.5 14C13.7761 14 14 13.7761 14 13.5C14 13.2239 13.7761 13 13.5 13L2.5 13C2.22386 13 2 13.2239 2 13.5C2 13.7761 2.22386 14 2.5 14L13.5 14ZM4.5 2C3.11929 2 2 3.11929 2 4.5L2 9.5C2 9.77614 2.22386 10 2.5 10L13.5 10C13.7761 10 14 9.77614 14 9.5L14 4.5C14 3.11929 12.8807 2 11.5 2L4.5 2ZM13 9H11L11 6H13V9ZM10 9H6L6 6H10L10 9ZM5 9L3 9L3 6L5 6L5 9ZM6 3L10 3L10 5L6 5L6 3ZM11 3H11.5C12.3284 3 13 3.67157 13 4.5V5L11 5V3ZM5 3L5 5L3 5V4.5C3 3.67157 3.67157 3 4.5 3H5Z" fill="#212121"/>
</svg>

<svg viewBox="0 0 16 16" fill="none" xmlns="http://www.w3.org/2000/svg" height="1em" width="1em">
  <path d="M13.5 14a.5.5 0 0 0 0-1h-11a.5.5 0 0 0 0 1h11Zm-9-12A2.5 2.5 0 0 0 2 4.5v5a.5.5 0 0 0 .5.5h11a.5.5 0 0 0 .5-.5v-5A2.5 2.5 0 0 0 11.5 2h-7ZM13 9h-2V6h2v3Zm-3 0H6V6h4v3ZM5 9H3V6h2v3Zm1-6h4v2H6V3Zm5 0h.5A1.5 1.5 0 0 1 13 4.5V5h-2V3ZM5 3v2H3v-.5A1.5 1.5 0 0 1 4.5 3H5Z" fill="#212121"/>
</svg>
